X: 27
T:Ne
R:polka
Z:added by Alf 
M:2/4
L:1/16
K:A
| A3B c2B2|A2F2 F2E2|C2E2 F2E2|C2E2 F2E2|\
A3B c2B2|A2F2 F2E2|C2E2 F2E2|A4 A4:|
a4 g2a2|b2a2 a2f2|e2c2 B2c2|A2B2 c2e2|\
a4 g2a2|b2a2 a2f2|e2c2 B2c2|A4 A4:|
